swiss/communes/5710.svg

<svg xmlns="http://www.w3.org/2000/svg" xmlns:xlink="http://www.w3.org/1999/xlink" height="763" width="603" version="1.0"><defs><radialGradient xlink:href="#a" id="b" gradientUnits="userSpaceOnUse" gradientTransform="matrix(1.21503 0 0 1.26667 -839.192 -490.49)" cx="858.042" cy="579.933" fx="858.042" fy="579.933" r="300"/><linearGradient id="a"><stop style="stop-color:#fff;stop-opacity:.3137255" offset="0"/><stop offset=".19" style="stop-color:#fff;stop-opacity:.25098041"/><stop style="stop-color:#6b6b6b;stop-opacity:.1254902" offset=".6"/><stop style="stop-color:#000;stop-opacity:.1254902" offset="1"/></linearGradient></defs><g style="opacity:1"><path d="M1.5 1.5v458.869C1.5 626.68 135.814 761.5 301.5 761.5c165.687 0 300-134.82 300-301.131V1.5H1.5z" style="opacity:1;fill:#2b5df2"/></g><g style="opacity:1"><path style="fill:#fcef3c" d="m1.5 126.832 514.828 543.697c42.941-44.221 72.449-101.639 81.9-165.629L121.5 1.5H1.5v125.332z"/><path style="fill:none;stroke:#000;stroke-width:3" d="M598.228 504.9 121.5 1.5M1.5 126.832l514.828 543.697"/><path d="M187.214 270.817s5.067 3.489 11.334 6.962c6.266 3.473 4.645-7.023 4.704-12.542.06-5.519 1.737-15.059 7.946-20.897l16.666 33.031c-1.912 6.043-3.804 16.69-3.885 24.26-.081 7.569-5.662 13.755-11.896 7.128-6.232-6.627-24.31-25.53-37.195-29.023-1.409-.281-4.045-1.326-10.828-.966-8.086.43-17.929-9.975-17.929-9.975s8.239 2.323 15.988 2.124c0 0-8.344-4.868-16.534-18.77 0 0 12.394 7.529 21.195 9.661 0 0-6.888-8.712-10.818-21.782 0 0 9.268 10.131 17.412 15.918 0 0-1.444-12.032-4.581-20.56 0 0 9.175 8.025 12.799 19.02 3.623 10.994 2.591 14.44 5.622 16.411zM260.93 201.49s3.172 5.272 6.254 11.74c3.083 6.467-7.294 4.206-12.807 3.926-5.512-.279-15.136.811-21.345 6.649l31.947 18.66c6.149-1.538 16.892-2.774 24.453-2.39 7.559.383 14.077-4.809 7.844-11.437-6.233-6.627-23.992-25.829-26.689-38.904-.194-1.425-1.074-4.119-.301-10.868.925-8.044-8.856-18.507-8.856-18.507s1.813 8.366 1.139 16.089c0 0-4.348-8.627-17.721-17.654 0 0 1.488 8.615 8.344 21.747 0 0-8.876-6.841-21.078-12.133 0 0 3.961 8.539 14.82 18.355 0 0-11.92-2.179-20.239-5.833 0 0 7.447 9.65 18.199 13.941 10.751 4.292 14.255 3.473 16.036 6.619zM287.228 330.705s-20.917 7.013-21.252 17.962c-.335 10.949 7.513 21.627 20.783 25.688 13.271 4.06 16.651 7.295 16.565 10.076-.259 8.459-20.331 4.943-20.949 25.104 0 0 9.197-12.475 19.569-14.129 0 0-6.156 11.641-.921 30.009 0 0 2.967-17.305 9.297-23.257 0 0-3.467 10.912 11.078 24.462 0 0-5.949-13.984-3.867-25.169 0 0 6.666 13.309 19.783 16.727 0 0-11.199-12.985-10.926-21.906.273-8.922 1.482-21.874-16.854-27.134-18.337-5.259-20.081-16.446-4.109-26.742l-18.197-11.691zM328.575 299.416s12.031-18.491 22.715-16.072c10.686 2.418 19.055 12.693 19.66 26.558.604 13.865 2.889 17.947 5.602 18.562 8.256 1.869 9.881-18.444 29.555-13.99 0 0-14.383 5.777-18.584 15.404 0 0 12.813-3.042 29.283 6.629 0 0-17.496-1.465-24.846 3.171 0 0 11.432-.621 20.906 16.855 0 0-12.047-9.264-23.396-10.051 0 0 11.213 9.789 11.234 23.343 0 0-9.764-14.096-18.469-16.066-8.705-1.971-21.547-4.047-22.043-23.117-.498-19.069-10.889-23.562-24.859-10.679l-6.758-20.547z" style="fill:#5ab532;stroke:#000;stroke-width:3;stroke-linecap:round;stroke-linejoin:round"/><path style="fill:#5ab532;stroke:#000;stroke-width:3" d="M202.004 231.832c10.501 11.166 12.627 43.936 40.424 73.492 37.568 39.946 55.377 32.2 81.881 60.383 26.506 28.183 16.83 44.935 46.48 76.462 29.648 31.526 65.305 19.427 86.785 42.268 21.48 22.84 9.959 36.43 63.643 55.705 0 0-36.604-24.085-42.229-44.9-5.625-20.816-16.547-35.3-56.063-47.646-39.516-12.346-54.537-67.083-67.203-107.83-12.668-40.748-64.833-95.583-105.644-109.938-19.506-6.86-27.171-14.054-28.968-15.965-13.926-14.808.539-13.785-15.297-30.623-28.19-29.975-49.433-29.35-54.567-24.521-5.134 4.829-7.06 25.993 21.13 55.968 15.837 16.838 15.702 2.337 29.628 17.145"/><circle transform="translate(-.039 -.045)" style="fill:#fff;stroke:#000;stroke-width:3" cx="170.245" cy="202.82" r="4.262"/><circle transform="translate(-.039 -.045)" style="fill:#fff;stroke:#000;stroke-width:3" cx="194.098" cy="180.388" r="4.262"/><path style="fill:none;stroke:#000;stroke-width:3;stroke-linecap:round;stroke-linejoin:round" d="M146.081 153.226c-3.449-3.667-8.13-.988-12.918-6.079M140.805 139.959c4.788 5.091 1.827 9.599 5.276 13.267l5.167 5.494"/></g><g style="display:inline"><path style="fill:url(#b);fill-opacity:1" d="M1.5 1.5v458.868c0 166.31 134.315 301.132 300 301.132s300-134.821 300-301.132V1.5H1.5z"/></g><g style="display:inline"><path style="fill:none;fill-opacity:1;stroke:#000;stroke-width:3;stroke-miterlimit:4;stroke-dasharray:none;stroke-opacity:1" d="M1.5 1.5v458.868c0 166.31 134.315 301.132 300 301.132s300-134.821 300-301.132V1.5H1.5z"/></g></svg>

<?xml version="1.0" encoding="UTF-8" standalone="no"?>
<svg
   xmlns:dc="http://purl.org/dc/elements/1.1/"
   xmlns:cc="http://creativecommons.org/ns#"
   xmlns:rdf="http://www.w3.org/1999/02/22-rdf-syntax-ns#"
   xmlns:svg="http://www.w3.org/2000/svg"
   xmlns="http://www.w3.org/2000/svg"
   xmlns:xlink="http://www.w3.org/1999/xlink"
   xmlns:sodipodi="http://sodipodi.sourceforge.net/DTD/sodipodi-0.dtd"
   xmlns:inkscape="http://www.inkscape.org/namespaces/inkscape"
   height="763"
   width="603"
   version="1.0"
   id="svg20"
   sodipodi:version="0.32"
   inkscape:version="0.46"
   sodipodi:docname="Coinsins-coat_of_arms.svg"
   sodipodi:docbase="C:\Documents and Settings\Steve\Bureau\Blason Villages Suisse pour Wikipédia (par Delta-9)"
   inkscape:output_extension="org.inkscape.output.svg.inkscape">
  <metadata
     id="metadata31">
    <rdf:RDF>
      <cc:Work
         rdf:about="">
        <dc:format>image/svg+xml</dc:format>
        <dc:type
           rdf:resource="http://purl.org/dc/dcmitype/StillImage" />
        <dc:date>07-AUG-2006</dc:date>
        <dc:creator>
          <cc:Agent>
            <dc:title>Jérôme BLUM (wagner51)</dc:title>
          </cc:Agent>
        </dc:creator>
        <cc:license
           rdf:resource="http://creativecommons.org/licenses/GPL/2.0/" />
        <dc:coverage />
        <dc:description>Gabarit pour le Projet:Blasons de WIkipédia</dc:description>
        <dc:subject>
          <rdf:Bag>
            <rdf:li>blason suisse modèle gabarit projet blasons</rdf:li>
          </rdf:Bag>
        </dc:subject>
        <dc:language>fr</dc:language>
        <dc:title>Gabrit d'un blason suisse</dc:title>
      </cc:Work>
      <cc:License
         rdf:about="http://creativecommons.org/licenses/GPL/2.0/">
        <cc:permits
           rdf:resource="http://web.resource.org/cc/Reproduction" />
        <cc:permits
           rdf:resource="http://web.resource.org/cc/Distribution" />
        <cc:requires
           rdf:resource="http://web.resource.org/cc/Notice" />
        <cc:permits
           rdf:resource="http://web.resource.org/cc/DerivativeWorks" />
        <cc:requires
           rdf:resource="http://web.resource.org/cc/ShareAlike" />
        <cc:requires
           rdf:resource="http://web.resource.org/cc/SourceCode" />
      </cc:License>
    </rdf:RDF>
  </metadata>
  <defs
     id="defs29"><inkscape:perspective
   sodipodi:type="inkscape:persp3d"
   inkscape:vp_x="0 : 381.5 : 1"
   inkscape:vp_y="0 : 1000 : 0"
   inkscape:vp_z="603 : 381.5 : 1"
   inkscape:persp3d-origin="301.5 : 254.33333 : 1"
   id="perspective28" />
<linearGradient
   id="linearGradient2893">
  <stop
     style="stop-color:#ffffff;stop-opacity:0.3137255;"
     offset="0"
     id="stop2895" />
  <stop
     id="stop2897"
     offset="0.19"
     style="stop-color:#ffffff;stop-opacity:0.25098041;" />
  <stop
     style="stop-color:#6b6b6b;stop-opacity:0.1254902;"
     offset="0.60000002"
     id="stop2901" />
  <stop
     style="stop-color:#000000;stop-opacity:0.1254902;"
     offset="1"
     id="stop2899" />
</linearGradient>
<linearGradient
   id="linearGradient2955">
  <stop
     style="stop-color:white;stop-opacity:0;"
     offset="0"
     id="stop2965" />
  <stop
     style="stop-color:black;stop-opacity:0.64583331;"
     offset="1"
     id="stop2959" />
</linearGradient>
<radialGradient
   inkscape:collect="always"
   xlink:href="#linearGradient2893"
   id="radialGradient3236"
   gradientUnits="userSpaceOnUse"
   gradientTransform="matrix(1.215027,1.531577e-24,1.464684e-23,1.266667,-839.1924,-490.4894)"
   cx="858.04236"
   cy="579.93323"
   fx="858.04236"
   fy="579.93323"
   r="300" />
<inkscape:perspective
   id="perspective2620"
   inkscape:persp3d-origin="297.63751 : 280.63 : 1"
   inkscape:vp_z="595.27502 : 420.94501 : 1"
   inkscape:vp_y="0 : 1000 : 0"
   inkscape:vp_x="0 : 420.94501 : 1"
   sodipodi:type="inkscape:persp3d" />

	
	

	

		
		
		
	
		
		
		
	
			
			
		
			
			
		
			
			
		
				
				
				
				
			</defs>
  <sodipodi:namedview
     inkscape:window-height="900"
     inkscape:window-width="1266"
     inkscape:pageshadow="2"
     inkscape:pageopacity="0.0"
     guidetolerance="10.0"
     gridtolerance="10.0"
     objecttolerance="10.0"
     borderopacity="1.0"
     bordercolor="#666666"
     pagecolor="#ffffff"
     id="base"
     inkscape:zoom="0.72722339"
     inkscape:cx="303.28165"
     inkscape:cy="393.20818"
     inkscape:window-x="20"
     inkscape:window-y="42"
     inkscape:current-layer="layer2"
     showgrid="false"
     showguides="true"
     inkscape:guide-bbox="true">
    <sodipodi:guide
       orientation="horizontal"
       position="761.5"
       id="guide1885" />
    <sodipodi:guide
       orientation="vertical"
       position="1.5"
       id="guide1887" />
    <sodipodi:guide
       orientation="horizontal"
       position="1.5"
       id="guide1889" />
    <sodipodi:guide
       orientation="vertical"
       position="601.5"
       id="guide1891" />
    <sodipodi:guide
       orientation="vertical"
       position="301.50081"
       id="guide1893" />
  </sodipodi:namedview>
  <desc
     id="desc22">Coat of Arms of Canton of Freiburg (Fribourg)</desc>
  <g
     inkscape:groupmode="layer"
     id="layer1"
     inkscape:label="Fond écu"
     style="opacity:1"
     sodipodi:insensitive="true">
    <path
       d="M 1.4999959,1.5 L 1.4999959,460.369 C 1.4999959,626.68 135.814,761.5 301.5,761.5 C 467.187,761.5 601.5,626.68 601.5,460.369 L 601.5,1.5 L 1.4999959,1.5 z"
       id="path2507"
       style="opacity:1;fill:#2b5df2" />
  </g>
  <g
     inkscape:groupmode="layer"
     id="layer2"
     inkscape:label="Meubles"
     style="opacity:1"
     sodipodi:insensitive="true">
    <path
       style="fill:#fcef3c"
       id="path2489"
       d="M 1.4999959,126.832 L 516.328,670.529 C 559.269,626.308 588.777,568.89 598.228,504.9 L 121.5,1.5 L 1.4999959,1.5 L 1.4999959,126.832 L 1.4999959,126.832 z" />
    <path
       style="fill:none;stroke:#000000;stroke-width:3"
       id="path2491"
       d="M 598.228,504.9 L 121.5,1.5" />
    <path
       style="fill:none;stroke:#000000;stroke-width:3"
       id="path2493"
       d="M 1.4999959,126.832 L 516.328,670.529" />
    <g
       id="g2719">
      <path
         id="path2593"
         d="M 187.214,270.817 C 187.214,270.817 192.281,274.306 198.548,277.779 C 204.814,281.252 203.193,270.756 203.252,265.237 C 203.312,259.718 204.989,250.178 211.198,244.34 L 227.864,277.371 C 225.952,283.414 224.06,294.061 223.979,301.631 C 223.898,309.2 218.317,315.386 212.083,308.759 C 205.851,302.132 187.773,283.229 174.888,279.736 C 173.479,279.455 170.843,278.41 164.06,278.77 C 155.974,279.2 146.131,268.795 146.131,268.795 C 146.131,268.795 154.37,271.118 162.119,270.919 C 162.119,270.919 153.775,266.051 145.585,252.149 C 145.585,252.149 157.979,259.678 166.78,261.81 C 166.78,261.81 159.892,253.098 155.962,240.028 C 155.962,240.028 165.23,250.159 173.374,255.946 C 173.374,255.946 171.93,243.914 168.793,235.386 C 168.793,235.386 177.968,243.411 181.592,254.406 C 185.215,265.4 184.183,268.846 187.214,270.817 z"
         style="fill:#5ab532;stroke:#000000;stroke-width:3;stroke-linecap:round;stroke-linejoin:round" />
      <path
         id="path2595"
         d="M 260.93,201.49 C 260.93,201.49 264.102,206.762 267.184,213.23 C 270.267,219.697 259.89,217.436 254.377,217.156 C 248.865,216.877 239.241,217.967 233.032,223.805 L 264.979,242.465 C 271.128,240.927 281.871,239.691 289.432,240.075 C 296.991,240.458 303.509,235.266 297.276,228.638 C 291.043,222.011 273.284,202.809 270.587,189.734 C 270.393,188.309 269.513,185.615 270.286,178.866 C 271.211,170.822 261.43,160.359 261.43,160.359 C 261.43,160.359 263.243,168.725 262.569,176.448 C 262.569,176.448 258.221,167.821 244.848,158.794 C 244.848,158.794 246.336,167.409 253.192,180.541 C 253.192,180.541 244.316,173.7 232.114,168.408 C 232.114,168.408 236.075,176.947 246.934,186.763 C 246.934,186.763 235.014,184.584 226.695,180.93 C 226.695,180.93 234.142,190.58 244.894,194.871 C 255.645,199.163 259.149,198.344 260.93,201.49 z"
         style="fill:#5ab532;stroke:#000000;stroke-width:3;stroke-linecap:round;stroke-linejoin:round" />
      <path
         id="path2597"
         d="M 287.228,330.705 C 287.228,330.705 266.311,337.718 265.976,348.667 C 265.641,359.616 273.489,370.294 286.759,374.355 C 300.03,378.415 303.41,381.65 303.324,384.431 C 303.065,392.89 282.993,389.374 282.375,409.535 C 282.375,409.535 291.572,397.06 301.944,395.406 C 301.944,395.406 295.788,407.047 301.023,425.415 C 301.023,425.415 303.99,408.11 310.32,402.158 C 310.32,402.158 306.853,413.07 321.398,426.62 C 321.398,426.62 315.449,412.636 317.531,401.451 C 317.531,401.451 324.197,414.76 337.314,418.178 C 337.314,418.178 326.115,405.193 326.388,396.272 C 326.661,387.35 327.87,374.398 309.534,369.138 C 291.197,363.879 289.453,352.692 305.425,342.396 L 287.228,330.705 z"
         style="fill:#5ab532;stroke:#000000;stroke-width:3;stroke-linecap:round;stroke-linejoin:round" />
      <path
         id="path2599"
         d="M 328.575,299.416 C 328.575,299.416 340.606,280.925 351.29,283.344 C 361.976,285.762 370.345,296.037 370.95,309.902 C 371.554,323.767 373.839,327.849 376.552,328.464 C 384.808,330.333 386.433,310.02 406.107,314.474 C 406.107,314.474 391.724,320.251 387.523,329.878 C 387.523,329.878 400.336,326.836 416.806,336.507 C 416.806,336.507 399.31,335.042 391.96,339.678 C 391.96,339.678 403.392,339.057 412.866,356.533 C 412.866,356.533 400.819,347.269 389.47,346.482 C 389.47,346.482 400.683,356.271 400.704,369.825 C 400.704,369.825 390.94,355.729 382.235,353.759 C 373.53,351.788 360.688,349.712 360.192,330.642 C 359.694,311.573 349.303,307.08 335.333,319.963 L 328.575,299.416 z"
         style="fill:#5ab532;stroke:#000000;stroke-width:3;stroke-linecap:round;stroke-linejoin:round" />
      <path
         style="fill:#5ab532;stroke:#000000;stroke-width:3"
         d="M 202.004,231.832 C 212.505,242.998 214.631,275.768 242.428,305.324 C 279.996,345.27 297.805,337.524 324.309,365.707 C 350.815,393.89 341.139,410.642 370.789,442.169 C 400.437,473.695 436.094,461.596 457.574,484.437 C 479.054,507.277 467.533,520.867 521.217,540.142 C 521.217,540.142 484.613,516.057 478.988,495.242 C 473.363,474.426 462.441,459.942 422.925,447.596 C 383.409,435.25 368.388,380.513 355.722,339.766 C 343.054,299.018 290.889,244.183 250.078,229.828 C 230.572,222.968 222.907,215.774 221.11,213.863 C 207.184,199.055 221.649,200.078 205.813,183.24 C 177.623,153.265 156.38,153.89 151.246,158.719 C 146.112,163.548 144.186,184.712 172.376,214.687 C 188.213,231.525 188.078,217.024 202.004,231.832"
         id="path2601" />
      <circle
         transform="translate(-3.90041e-2,-4.5e-2)"
         style="fill:#ffffff;stroke:#000000;stroke-width:3"
         sodipodi:ry="4.2620001"
         sodipodi:rx="4.2620001"
         sodipodi:cy="202.82001"
         sodipodi:cx="170.245"
         cx="170.245"
         cy="202.82001"
         r="4.2620001"
         id="circle2605" />
      <circle
         transform="translate(-3.90041e-2,-4.5e-2)"
         style="fill:#ffffff;stroke:#000000;stroke-width:3"
         sodipodi:ry="4.2620001"
         sodipodi:rx="4.2620001"
         sodipodi:cy="180.388"
         sodipodi:cx="194.09801"
         cx="194.09801"
         cy="180.388"
         r="4.2620001"
         id="circle2607" />
      <path
         style="fill:none;stroke:#000000;stroke-width:3;stroke-linecap:round;stroke-linejoin:round"
         d="M 146.081,153.226 C 142.632,149.559 137.951,152.238 133.163,147.147"
         id="path2611" />
      <path
         style="fill:none;stroke:#000000;stroke-width:3;stroke-linecap:round;stroke-linejoin:round"
         d="M 140.805,139.959 C 145.593,145.05 142.632,149.558 146.081,153.226 L 151.248,158.72"
         id="path2613" />
    </g>
  </g>
  <g
     inkscape:groupmode="layer"
     id="layer3"
     inkscape:label="Reflet final"
     style="display:inline"
     sodipodi:insensitive="true">
    <path
       style="fill:url(#radialGradient3236);fill-opacity:1"
       d="M 1.5,1.5 L 1.5,460.3679 C 1.5,626.67854 135.81454,761.5 301.49993,761.5 C 467.1854,761.5 601.5,626.67854 601.5,460.3679 L 601.5,1.5 L 1.5,1.5 z "
       id="path2346" />
  </g>
  <g
     inkscape:groupmode="layer"
     id="layer4"
     inkscape:label="Contour final"
     style="display:inline"
     sodipodi:insensitive="true">
    <path
       style="fill:none;fill-opacity:1;stroke:#000000;stroke-width:3;stroke-miterlimit:4;stroke-dasharray:none;stroke-opacity:1"
       d="M 1.5,1.5 L 1.5,460.36794 C 1.5,626.67854 135.81454,761.5 301.49993,761.5 C 467.1854,761.5 601.5,626.67854 601.5,460.36794 L 601.5,1.5 L 1.5,1.5 z "
       id="path3239" />
  </g>
</svg>
